Suru++-Ubuntu/apps/scalable/imageshack.svg

<svg width="256" height="256" version="1.1" viewBox="0 0 67.73 67.73" xmlns="http://www.w3.org/2000/svg" xmlns:xlink="http://www.w3.org/1999/xlink">
 <defs>
  <linearGradient id="linearGradient2059" x1="32.889" x2="270.393" y1="45.284" y2="266.716" gradientTransform="matrix(.26970778 0 0 .26970778 -7.1289177 220.56049)" gradientUnits="userSpaceOnUse">
   <stop style="stop-color:#435963" offset="0"/>
   <stop style="stop-color:#2e3e46" offset="1"/>
  </linearGradient>
  <filter id="filter1132" x="-.02" y="-.03" width="1.046" height="1.05" style="color-interpolation-filters:sRGB">
   <feGaussianBlur stdDeviation="2.32"/>
  </filter>
  <filter id="filter4569" x="-.01" y="-.01" width="1.023" height="1.025" style="color-interpolation-filters:sRGB">
   <feGaussianBlur stdDeviation="1.16"/>
  </filter>
  <linearGradient id="linearGradient1108-7" x1="296" x2="296" y1="-212" y2="236" gradientUnits="userSpaceOnUse">
   <stop style="stop-color:#ffffff" offset="0"/>
   <stop style="stop-color:#ffffff;stop-opacity:.09803922" offset=".125"/>
   <stop style="stop-color:#000000;stop-opacity:.09803922" offset=".925"/>
   <stop style="stop-color:#000000;stop-opacity:.49803922" offset="1"/>
  </linearGradient>
  <clipPath id="clipPath1082-3-93">
   <path d="M 361.9375,-212 C 507.2348,-212 528,-191.28677 528,-46.125 V 70.125 C 528,215.28618 507.2348,236 361.9375,236 H 214.0625 C 68.7652,236 48,215.28618 48,70.125 V -46.125 C 48,-191.28677 68.7652,-212 214.0625,-212 Z" style="fill:#8c59d9"/>
  </clipPath>
 </defs>
 <g transform="translate(0,-229.26666)">
  <path d="m43.837425 232.42763c19.593907 0 22.394175 2.79326 22.394175 22.36889v15.67677c0 19.57555-2.800268 22.36888-22.394175 22.36888h-19.94152c-19.593906 0-22.394174-2.79333-22.394174-22.36888v-15.67677c0-19.57563 2.8002681-22.36889 22.394174-22.36889z" style="fill:none;opacity:.115;stroke-linecap:round;stroke-linejoin:round;stroke-width:1.0788312;stroke:#000000"/>
  <path transform="matrix(.26970778 0 0 .26970778 -7.1289177 220.56049)" d="m188.96876 43.999995c72.64865 0 83.03125 10.356615 83.03125 82.937505v58.125c0 72.58059-10.3826 82.9375-83.03125 82.9375h-73.9375c-72.648654 0-83.031254-10.35691-83.031254-82.9375v-58.125c0-72.58089 10.3826-82.937505 83.031254-82.937505z" style="filter:url(#filter4569);opacity:.1"/>
  <path transform="matrix(.26970778 0 0 .26970778 -7.1289177 220.56049)" d="m188.96876 45.999995c72.64865 0 83.03125 10.356615 83.03125 82.937505v58.125c0 72.58059-10.3826 82.9375-83.03125 82.9375h-73.9375c-72.648654 0-83.031254-10.35691-83.031254-82.9375v-58.125c0-72.58089 10.3826-82.937505 83.031254-82.937505z" style="filter:url(#filter1132);opacity:.2"/>
  <path d="m43.837425 232.42763c19.593907 0 22.394175 2.79326 22.394175 22.36889v15.67677c0 19.57555-2.800268 22.36888-22.394175 22.36888h-19.94152c-19.593906 0-22.394174-2.79333-22.394174-22.36888v-15.67677c0-19.57563 2.8002681-22.36889 22.394174-22.36889z" style="fill:url(#linearGradient2059)"/>
  <path d="m0.9525 262.56205v7.96544c0 19.89285 2.846163 22.73147 22.761203 22.73147h20.268349c19.91504 0 22.761202-2.83862 22.761202-22.73147v-7.96544z" style="fill:#ffffff;opacity:.1"/>
  <path d="m34.339496 293.25889h9.631198c2.486392 0 4.706268-0.0442 6.687644-0.16069 0.990687-0.0582 1.921825-0.13436 2.796662-0.23212 0.874839-0.0978 1.693417-0.21706 2.459341-0.36129 0.765925-0.14424 1.479058-0.31385 2.143006-0.51149 0.663948-0.19765 1.278747-0.42364 1.847655-0.68163 0.568907-0.25801 1.091957-0.54801 1.572758-0.87331 0.480805-0.3253 0.919221-0.68593 1.318856-1.08546 0.399633-0.39954 0.760526-0.83793 1.085928-1.31864 0.325403-0.48071 0.615357-1.00344 0.873465-1.57227 0.258107-0.56883 0.484235-1.18356 0.681986-1.84745 0.19775-0.66388 0.367161-1.3772 0.511487-2.14309 0.144327-0.7659 0.263612-1.58441 0.361452-2.45924s0.174108-1.80566 0.232399-2.79637c0.116583-1.98143 0.161055-4.20159 0.161055-6.68819v-15.9312c0-2.48661-0.04448-4.70675-0.161055-6.68819-0.05829-0.99071-0.134558-1.92154-0.232399-2.79637-0.09784-0.87484-0.217125-1.69334-0.361452-2.45924-0.144326-0.76589-0.313737-1.4792-0.511487-2.14309-0.197751-0.66389-0.423879-1.27862-0.681986-1.84745-0.258108-0.56882-0.548062-1.09156-0.873465-1.57227-0.325402-0.48071-0.686295-0.9191-1.085928-1.31863-0.399635-0.39954-0.838051-0.76017-1.318856-1.08547-0.480801-0.3253-1.003851-0.6153-1.572758-0.87331-0.568908-0.25799-1.183707-0.48398-1.847655-0.68163-0.663948-0.19764-1.377081-0.36725-2.143006-0.51149-0.765924-0.14423-1.584502-0.26353-2.459341-0.36129-0.874837-0.0978-1.805975-0.17387-2.796662-0.23211-1.981376-0.11647-4.201252-0.1607-6.687644-0.1607h-9.631198z" style="fill:#ffffff;opacity:.1"/>
  <g transform="matrix(.17157678 0 0 .17157678 -7.5670613 223.84326)">
   <path transform="matrix(1.5420696,0,0,1.5420696,44.103062,31.609172)" d="m156.24023 240.28516h9.44532c9.25696 0 17.52167-0.16447 24.89843-0.59766 3.68838-0.21659 7.15505-0.49967 10.41211-0.86328 3.25707-0.36361 6.30468-0.8073 9.15625-1.34375 2.85158-0.53645 5.50661-1.16724 7.97852-1.90235 2.47191-0.7351 4.76084-1.57558 6.87891-2.53515s4.06541-2.03819 5.85546-3.24805c1.79006-1.20985 3.4223-2.55115 4.91016-4.03711 1.48786-1.48595 2.83148-3.11642 4.04297-4.90429 1.21149-1.78788 2.291-3.73205 3.25195-5.84766s1.80283-4.40194 2.53907-6.87109c0.73623-2.46916 1.36696-5.12218 1.90429-7.97071 0.53734-2.84852 0.98144-5.89278 1.34571-9.14648 0.36426-3.25371 0.64821-6.71569 0.86523-10.40039 0.42395-7.19813 0.57837-15.30847 0.58594-24.29688-2.26446 2.01899-4.94554 4.44845-6.81055 5.9961-14.797 12.27895-23.93948 13.41588-40.0918 3.49804-12.10127-7.43027-24.64593-13.33178-38.51172-16.56445-21.07881-4.91418-40.68558-12.63648-55.02929-30.04102-2.77938-3.37274-7.05334-6.42707-10.996096-5.92968-19.327922 2.43828-34.516986-6.72227-49.689453-16.343753-1.749597 14.442283 6.348235 25.300593 13.74414 36.126953 14.784028 21.6417 35.007181 38.60473 51.652339 58.51758 13.59318 16.26174 37.91589 24.99374 41.66211 48.70508z" style="fill:#fad505"/>
   <path transform="matrix(1.5420696,0,0,1.5420696,44.103062,31.609172)" d="m250.30078 156.70117c5e-4 -0.3536 0.02344-0.60244 0.02344-0.95898v-40.62891c-7.26115-3.27561-14.56812-6.35621-22.36524-8.26562-13.88134-3.39933-24.30101-10.850608-32.76171-22.964848-10.9392-15.662717-30.79969-20.560896-49.13868-12.082031-4.20149 1.942195-8.13759 6.1924-12.97265 4.466797-26.0974-9.314755-49.168825 6.786626-73.933596 8.476563-6.635888 0.452638-10.997894 4.565924-9.970703 12.1875 15.171818 9.625379 30.361531 18.785289 49.689453 16.347659 3.942756-0.49739 8.216716 2.55694 10.996096 5.92968 14.34371 17.40454 33.94853 25.12749 55.02734 30.04102 13.86578 3.23267 26.4124 9.13418 38.51367 16.56445 16.15232 9.91784 25.29285 8.78286 40.08985-3.49609 2.16581-1.79726 4.60346-3.80085 6.80273-5.61719z" style="fill:#dc922c"/>
   <g style="fill:#3e535d">
    <circle cx="297.784" cy="194.273" r="49.144" style="fill:#3e535d"/>
    <path d="m297.784 194.273c-4.813 21.63 12.915 43.978-8.715 39.164-21.63-4.813-35.262-26.25-30.449-47.88s26.25-35.262 47.88-30.449-3.903 17.536-8.716 39.165z" style="fill:#ffffff"/>
   </g>
  </g>
  <path transform="matrix(.13485389 0 0 .13485389 -4.9712548 261.01665)" d="M 361.9375,-212 C 507.2348,-212 528,-191.28677 528,-46.125 V 70.125 C 528,215.28618 507.2348,236 361.9375,236 H 214.0625 C 68.7652,236 48,215.28618 48,70.125 V -46.125 C 48,-191.28677 68.7652,-212 214.0625,-212 Z" clip-path="url(#clipPath1082-3-93)" style="fill:none;opacity:.6;stroke-linecap:round;stroke-linejoin:round;stroke-width:8;stroke:url(#linearGradient1108-7)"/>
 </g>
</svg>

<svg xmlns="http://www.w3.org/2000/svg" xmlns:xlink="http://www.w3.org/1999/xlink" width="256" height="256" version="1.1" viewBox="0 0 67.73 67.73">
 <defs>
  <linearGradient id="linearGradient1632">
   <stop style="stop-color:#435963" offset="0"/>
   <stop style="stop-color:#2e3e46" offset="1"/>
  </linearGradient>
  <linearGradient id="linearGradient2059" x1="32.889" x2="270.393" y1="45.284" y2="266.716" gradientTransform="matrix(0.26970778,0,0,0.26970778,-7.1289177,220.56049)" gradientUnits="userSpaceOnUse" xlink:href="#linearGradient1632"/>
  <filter id="filter1132" width="1.046" height="1.05" x="-.02" y="-.03" style="color-interpolation-filters:sRGB">
   <feGaussianBlur stdDeviation="2.32"/>
  </filter>
  <filter id="filter4569" width="1.023" height="1.025" x="-.01" y="-.01" style="color-interpolation-filters:sRGB">
   <feGaussianBlur stdDeviation="1.16"/>
  </filter>
  <linearGradient id="linearGradient1108-7" x1="296" x2="296" y1="-212" y2="236" gradientUnits="userSpaceOnUse" xlink:href="#linearGradient1013"/>
  <linearGradient id="linearGradient1013">
   <stop style="stop-color:#ffffff" offset="0"/>
   <stop offset=".125" style="stop-color:#ffffff;stop-opacity:0.09803922"/>
   <stop offset=".925" style="stop-color:#000000;stop-opacity:0.09803922"/>
   <stop style="stop-color:#000000;stop-opacity:0.49803922" offset="1"/>
  </linearGradient>
  <clipPath id="clipPath1082-3-93" clipPathUnits="userSpaceOnUse">
   <path style="fill:#8c59d9" d="M 361.9375,-212 C 507.2348,-212 528,-191.28677 528,-46.125 V 70.125 C 528,215.28618 507.2348,236 361.9375,236 H 214.0625 C 68.7652,236 48,215.28618 48,70.125 V -46.125 C 48,-191.28677 68.7652,-212 214.0625,-212 Z"/>
  </clipPath>
 </defs>
 <g transform="translate(0,-229.26666)">
  <path style="opacity:0.115;fill:none;stroke:#000000;stroke-width:1.0788312;stroke-linecap:round;stroke-linejoin:round" d="m 43.837425,232.42763 c 19.593907,0 22.394175,2.79326 22.394175,22.36889 v 15.67677 c 0,19.57555 -2.800268,22.36888 -22.394175,22.36888 h -19.94152 c -19.5939058,0 -22.3941739,-2.79333 -22.3941739,-22.36888 v -15.67677 c 0,-19.57563 2.8002681,-22.36889 22.3941739,-22.36889 z"/>
  <path style="opacity:0.1;filter:url(#filter4569)" d="m 188.96876,43.999995 c 72.64865,0 83.03125,10.356615 83.03125,82.937505 v 58.125 c 0,72.58059 -10.3826,82.9375 -83.03125,82.9375 h -73.9375 C 42.382606,268 32.000006,257.64309 32.000006,185.0625 v -58.125 c 0,-72.58089 10.3826,-82.937505 83.031254,-82.937505 z" transform="matrix(0.26970778,0,0,0.26970778,-7.1289177,220.56049)"/>
  <path d="m 188.96876,45.999995 c 72.64865,0 83.03125,10.356615 83.03125,82.937505 v 58.125 c 0,72.58059 -10.3826,82.9375 -83.03125,82.9375 h -73.9375 C 42.382606,270 32.000006,259.64309 32.000006,187.0625 v -58.125 c 0,-72.58089 10.3826,-82.937505 83.031254,-82.937505 z" transform="matrix(0.26970778,0,0,0.26970778,-7.1289177,220.56049)" style="opacity:0.2;filter:url(#filter1132)"/>
  <path d="m 43.837425,232.42763 c 19.593907,0 22.394175,2.79326 22.394175,22.36889 v 15.67677 c 0,19.57555 -2.800268,22.36888 -22.394175,22.36888 h -19.94152 c -19.5939058,0 -22.3941739,-2.79333 -22.3941739,-22.36888 v -15.67677 c 0,-19.57563 2.8002681,-22.36889 22.3941739,-22.36889 z" style="fill:url(#linearGradient2059)"/>
  <path d="m 0.9525,262.56205 v 7.96544 c 0,19.89285 2.846163,22.73147 22.761203,22.73147 h 20.268349 c 19.91504,0 22.761202,-2.83862 22.761202,-22.73147 v -7.96544 z" style="opacity:0.1;fill:#ffffff"/>
  <path d="m 34.339496,293.25889 h 9.631198 c 2.486392,0 4.706268,-0.0442 6.687644,-0.16069 0.990687,-0.0582 1.921825,-0.13436 2.796662,-0.23212 0.874839,-0.0978 1.693417,-0.21706 2.459341,-0.36129 0.765925,-0.14424 1.479058,-0.31385 2.143006,-0.51149 0.663948,-0.19765 1.278747,-0.42364 1.847655,-0.68163 0.568907,-0.25801 1.091957,-0.54801 1.572758,-0.87331 0.480805,-0.3253 0.919221,-0.68593 1.318856,-1.08546 0.399633,-0.39954 0.760526,-0.83793 1.085928,-1.31864 0.325403,-0.48071 0.615357,-1.00344 0.873465,-1.57227 0.258107,-0.56883 0.484235,-1.18356 0.681986,-1.84745 0.19775,-0.66388 0.367161,-1.3772 0.511487,-2.14309 0.144327,-0.7659 0.263612,-1.58441 0.361452,-2.45924 0.09784,-0.87483 0.174108,-1.80566 0.232399,-2.79637 0.116583,-1.98143 0.161055,-4.20159 0.161055,-6.68819 v -15.9312 c 0,-2.48661 -0.04448,-4.70675 -0.161055,-6.68819 -0.05829,-0.99071 -0.134558,-1.92154 -0.232399,-2.79637 -0.09784,-0.87484 -0.217125,-1.69334 -0.361452,-2.45924 -0.144326,-0.76589 -0.313737,-1.4792 -0.511487,-2.14309 -0.197751,-0.66389 -0.423879,-1.27862 -0.681986,-1.84745 -0.258108,-0.56882 -0.548062,-1.09156 -0.873465,-1.57227 -0.325402,-0.48071 -0.686295,-0.9191 -1.085928,-1.31863 -0.399635,-0.39954 -0.838051,-0.76017 -1.318856,-1.08547 -0.480801,-0.3253 -1.003851,-0.6153 -1.572758,-0.87331 -0.568908,-0.25799 -1.183707,-0.48398 -1.847655,-0.68163 -0.663948,-0.19764 -1.377081,-0.36725 -2.143006,-0.51149 -0.765924,-0.14423 -1.584502,-0.26353 -2.459341,-0.36129 -0.874837,-0.0978 -1.805975,-0.17387 -2.796662,-0.23211 -1.981376,-0.11647 -4.201252,-0.1607 -6.687644,-0.1607 h -9.631198 z" style="opacity:0.1;fill:#ffffff"/>
  <g transform="matrix(0.17157678,0,0,0.17157678,-7.5670613,223.84326)">
   <path d="M 156.24023 240.28516 L 165.68555 240.28516 C 174.94251 240.28516 183.20722 240.12069 190.58398 239.6875 C 194.27236 239.47091 197.73903 239.18783 200.99609 238.82422 C 204.25316 238.46061 207.30077 238.01692 210.15234 237.48047 C 213.00392 236.94402 215.65895 236.31323 218.13086 235.57812 C 220.60277 234.84302 222.8917 234.00254 225.00977 233.04297 C 227.12784 232.0834 229.07518 231.00478 230.86523 229.79492 C 232.65529 228.58507 234.28753 227.24377 235.77539 225.75781 C 237.26325 224.27186 238.60687 222.64139 239.81836 220.85352 C 241.02985 219.06564 242.10936 217.12147 243.07031 215.00586 C 244.03126 212.89025 244.87314 210.60392 245.60938 208.13477 C 246.34561 205.66561 246.97634 203.01259 247.51367 200.16406 C 248.05101 197.31554 248.49511 194.27128 248.85938 191.01758 C 249.22364 187.76387 249.50759 184.30189 249.72461 180.61719 C 250.14856 173.41906 250.30298 165.30872 250.31055 156.32031 C 248.04609 158.3393 245.36501 160.76876 243.5 162.31641 C 228.703 174.59536 219.56052 175.73229 203.4082 165.81445 C 191.30693 158.38418 178.76227 152.48267 164.89648 149.25 C 143.81767 144.33582 124.2109 136.61352 109.86719 119.20898 C 107.08781 115.83624 102.81385 112.78191 98.871094 113.2793 C 79.543172 115.71758 64.354108 106.55703 49.181641 96.935547 C 47.432044 111.37783 55.529876 122.23614 62.925781 133.0625 C 77.709809 154.7042 97.932962 171.66723 114.57812 191.58008 C 128.1713 207.84182 152.49401 216.57382 156.24023 240.28516 z" transform="matrix(1.5420696,0,0,1.5420696,44.103062,31.609172)" style="fill:#fad505"/>
   <path d="M 250.30078 156.70117 C 250.30128 156.34757 250.32422 156.09873 250.32422 155.74219 L 250.32422 115.11328 C 243.06307 111.83767 235.7561 108.75707 227.95898 106.84766 C 214.07764 103.44833 203.65797 95.997052 195.19727 83.882812 C 184.25807 68.220095 164.39758 63.321916 146.05859 71.800781 C 141.8571 73.742976 137.921 77.993181 133.08594 76.267578 C 106.98854 66.952823 83.917115 83.054204 59.152344 84.744141 C 52.516456 85.196779 48.15445 89.310065 49.181641 96.931641 C 64.353459 106.55702 79.543172 115.71693 98.871094 113.2793 C 102.81385 112.78191 107.08781 115.83624 109.86719 119.20898 C 124.2109 136.61352 143.81572 144.33647 164.89453 149.25 C 178.76031 152.48267 191.30693 158.38418 203.4082 165.81445 C 219.56052 175.73229 228.70105 174.59731 243.49805 162.31836 C 245.66386 160.5211 248.10151 158.51751 250.30078 156.70117 z" transform="matrix(1.5420696,0,0,1.5420696,44.103062,31.609172)" style="fill:#dc922c"/>
   <g style="fill:#3e535d">
    <circle style="fill:#3e535d" cx="297.784" cy="194.273" r="49.144"/>
    <path style="fill:#ffffff" d="m 297.784,194.273 c -4.813,21.63 12.915,43.978 -8.715,39.164 -21.63,-4.813 -35.262,-26.25 -30.449,-47.88 4.813,-21.63 26.25,-35.262 47.88,-30.449 21.63,4.813 -3.903,17.536 -8.716,39.165 z"/>
   </g>
  </g>
  <path style="opacity:0.6;fill:none;stroke:url(#linearGradient1108-7);stroke-width:8;stroke-linecap:round;stroke-linejoin:round" d="M 361.9375,-212 C 507.2348,-212 528,-191.28677 528,-46.125 V 70.125 C 528,215.28618 507.2348,236 361.9375,236 H 214.0625 C 68.7652,236 48,215.28618 48,70.125 V -46.125 C 48,-191.28677 68.7652,-212 214.0625,-212 Z" clip-path="url(#clipPath1082-3-93)" transform="matrix(0.13485389,0,0,0.13485389,-4.9712548,261.01665)"/>
 </g>
</svg>
